X: 43400
T: X
R: jig
M: 6/8
K: Dmajor
|:e|fdA FDF|GDG BAG|FAd dcd|e/f/gf e^de|
fdA FDF|GDG BAG|1 FAd cde|fdc d2:|2 FAd GBd|Ace d2||
G|FAd FAd|GBd GBd|Ace Ace|fdB ABG|
FAd F2 d|GBd G2 d|Ace Ace|g/f/ed c/B/AG|
F2 d FAd|G2 d GB/c/d|A2 e Ac/d/e|fdB A^G=G|
FB/c/d F2 d|GB/c/d G2 d|Ac/d/e Aca|gec d2||

